X: 11183
Q: "Jig time."
M: 6/8
L: 1/8
K: G
e2c d2B | c2A B2e | d2G G2E | D2G "^Fin."G2 H:|
g |\
g2f g2e | d2c B2c | d2G G2_B | A2F D2g |\
g2f g2_b | a2g f2g | =f2d d2c | _B2G "^D.C."G2 |]


